app/themes/uggwc_pro/assets/images/thema/Finanzwissenschaften.svg

<svg width="16" height="16" viewBox="0 0 16 16" fill="none" xmlns="http://www.w3.org/2000/svg">
<path d="M13.0966 13.6345C13.0497 13.3977 12.8168 13.2462 12.5815 13.2999C12.1996 13.387 11.6021 13.4932 10.9591 13.4932C8.93189 13.4932 7.31882 12.2507 6.62125 10.4414H10.6816C10.7789 10.4414 10.8733 10.4083 10.9493 10.3475C11.0253 10.2867 11.0784 10.2018 11.0997 10.1068L11.3273 9.09397C11.3875 8.82604 11.1838 8.57143 10.9092 8.57143H6.115C6.07179 8.05971 6.0645 7.56118 6.11989 7.06268H11.3554C11.4531 7.06268 11.5479 7.02927 11.6241 6.96799C11.7002 6.90671 11.7531 6.82124 11.774 6.72575L12.0066 5.66307C12.0651 5.39579 11.8616 5.14286 11.5879 5.14286H6.64943C7.38632 3.53604 8.88836 2.46321 10.8501 2.46321C11.3675 2.46321 11.8702 2.54357 12.2019 2.61125C12.4239 2.65654 12.6429 2.52204 12.702 2.30329L13.1302 0.718714C13.1953 0.477964 13.0422 0.232429 12.7972 0.185964C12.3649 0.104 11.6682 0 10.9155 0C7.44468 0 4.64393 2.15186 3.60982 5.14286H2.42857C2.19189 5.14286 2 5.33475 2 5.57143V6.63411C2 6.87079 2.19189 7.06268 2.42857 7.06268H3.19889C3.16286 7.54864 3.15671 8.10864 3.19243 8.57143H2.42857C2.19189 8.57143 2 8.76332 2 9V10.0129C2 10.2495 2.19189 10.4414 2.42857 10.4414H3.50407C4.39782 13.6676 7.188 16 10.9155 16C11.8549 16 12.6499 15.8377 13.0977 15.7219C13.318 15.6649 13.4558 15.4466 13.4116 15.2234L13.0966 13.6345Z" fill="#6E6CFF"/>
</svg>

<svg width="16" height="16" fill="none" xmlns="http://www.w3.org/2000/svg"><path d="M13.097 13.634a.428.428 0 0 0-.515-.334c-.382.087-.98.193-1.623.193-2.027 0-3.64-1.242-4.338-3.052h4.06a.428.428 0 0 0 .419-.334l.227-1.013a.429.429 0 0 0-.418-.523H6.115a7.71 7.71 0 0 1 .005-1.508h5.235a.429.429 0 0 0 .419-.337l.233-1.063a.429.429 0 0 0-.42-.52H6.65c.737-1.607 2.24-2.68 4.201-2.68.518 0 1.02.08 1.352.148a.429.429 0 0 0 .5-.308L13.13.72a.428.428 0 0 0-.333-.533A10.401 10.401 0 0 0 10.915 0C7.445 0 4.644 2.152 3.61 5.143H2.429A.429.429 0 0 0 2 5.57v1.063c0 .237.192.429.429.429h.77a10.602 10.602 0 0 0-.007 1.508H2.43A.429.429 0 0 0 2 9v1.013c0 .236.192.428.429.428h1.075C4.398 13.668 7.188 16 10.915 16a8.91 8.91 0 0 0 2.183-.278.429.429 0 0 0 .314-.499l-.315-1.589z" fill="#6E6CFF"/></svg>
